X:1
T:Isaac Watts, 1717 (Psalm 98, Part1)                           86. 86. (C. M.)
T:C Major               Stephen Jenks, 1800
T:Poundridge
T:Transcribed from The Musical Harmonist, 1800.
%%score [ 1 2 3 4 ]
L:1/8
Q:1/4=130
M:4/4
K:C
V:1 treble nm="Tr." snm="Tr."
V:2 treble nm="C." snm="C."
V:3 treble-8 nm="T." snm="T."
V:4 bass nm="B." snm="B."
V:1
"^1. To    our  Al –migh–ty    Maker,  God,  New  honors   be   addressed;                                                                               His   great  sal–va–tion \n2. He   spake the word to Abraham first;   His  truth  fulfils   the   grace;                                                                               The Gentiles make his\n3. Let the whole earth his love proclaim  With all her diff'rent tongues,                                                                               And spread the honors" c8 | %1
 G2 G2 G2 c2 | B2 B2 B2 cd | e2 e2 fe d2 | e6 z2 | z8 | z4 z2 EF | G2 G2 G2 c2 | %8
"^1. shines abroad,  And makes the na – tions  blest. ______________     His  great salvation  shines  abroad,  And makes the na  – tions  blest. \n2. name their trust, And learn his right–eous–ness. _____________  The Gentiles make his name their trust, And learn his right–eous–ness.\n3. of  his  name     In   me  –   lo  –  dy   and    songs. ______________   And spread  the  honors  of  his  name    In  me –  lo  – dy  and   songs." B2 B2 B2 cd | %9
 e2 e2 e2 cB | c8- | c6 G2 | c2 c2 c2 e2 | dc BA G2 c2 | e2 c2 d2 B2 | c8 |] %16
V:2
"^1. To    our  Al –migh–ty    Maker,  God,  New  honors   be   addressed;                                                                                                                 His \n2. He   spake the word to Abraham first;   His  truth  fulfils   the   grace;                                                                                                                 The\n3. Let the whole earth his love proclaim  With all her diff'rent tongues,                                                                                                                 And" G8 | %1
 E2 E2 E2 EF | G2 G2 G2 EF | G2 G2 A2 G2 | G6 z2 | z8 | z8 | z4 z2 EF | %8
"^1. great  sal–va–tion  shines  abroad,  And  makes  the nations  blest.       His  great salvation  shines  abroad,  And makes the na  – tions  blest.\n2. Gentiles make his name their trust, And learn his right–eous–ness. The Gentiles make his name their trust, And learn his right–eous–ness.\n3. spread  the  honors  of    his   name    In   me –  lo –  dy  and   songs.   And spread  the  honors  of  his  name    In   me –  lo  – dy    and   songs." G2 G2 G2 A2 | %9
 G2 G2 GF EF | G2 A2 G2 G2 | G6 E2 | G2 G2 G2 c2 | G2 G2 G2 AB | c2 G2 A2 G2 | G8 |] %16
V:3
"^1. To    our  Al –migh–ty    Maker,  God,  New  honors   be   addressed;                                            His  great salvation  shines  a–broad,  And\n2. He   spake the word to Abraham first;   His  truth  fulfils   the   grace;                                       The Gentiles make his name their trust, And\n3. Let the whole earth his love proclaim  With all her diff'rent tongues,                                            And  spread  the  honors  of his name   In" G8 | %1
 c2 c2 c2 e2 | d2 d2 d2 ed | c2 c2 dc B2 | c6 z2 | z4 z2 EF | G2 G2 G2 AB | c2 c2 c2 ec | %8
"^1. makes the na– tions  blest. ______________                                            His  great salvation  shines  abroad,  And makes the na  – tions  blest.  \n2. learn his  right–eous–ness. ______________                                       The Gentiles make his name their trust, And learn his right–eous–ness.\n3. me –  lo –  dy  and   songs. ______________                                            And spread  the  honors  of  his  name    In   me –  lo  – dy and  songs." d2 d2 d2 cB | %9
 c8- | c6 z2 | z4 z2 c2 | e2 e2 e2 c2 | d2 d2 d2 ef | g2 e2 dc B2 | c8 |] %16
V:4
 C,8 | C,2 C,2 C,2 C2 | G,2 G,2 G,2 C,2 | E,2 E,2 F,2 G,2 | %4
 C,6"^1.  His   great  salvation  shines  a–broad,    His  great  sal–va–tion\n2. The Gentiles make his name their trust, The Gentiles make his\n3.  And spread  the  honors  of  his  name,  And spread the honors" E,F, | %5
 G,2 G,2 G,2 E,2 | C,2 C,2 C,2 C,D, | E,2 E,2 E,2 C,2 | %8
"^1. shines abroad,  And makes the na – tions  blest. ______________      His  great salvation  shines  abroad,  And makes the na  – tions  blest.\n2. name their trust, And learn his right–eous–ness. _____________    The Gentiles make his name their trust, And learn his right–eous–ness.\n3. of  his  name     In   me  –   lo  –  dy   and    songs. ______________  And spread  the  honors  of  his  name    In   me –  lo  – dy    and   songs." G,2 G,2 G,2 E,2 | %9
 C2 C2 C2 G,2 | C,8- | C,6 C,2 | B,2 B,2 B,2 C,2 | G,A, G,F, G,2 E,2 | C,2 E,2 F,2 G,2 | C,8 |] %16

